X: 30620
T: One To One
R: waltz
M: 3/4
K: Fmajor
|:F3 G Ac|(3ded c2df-|f2-fc cf|A2 G3 F|F3 G Ac|(3ded c2df-|f2 g2-ga|g4 ga|
af fa gf|(3ded c2-cd|fc cf cA|(3GAG F4-|1 F3 G Ac|df - fc cA|(3GAG F3 G|F6:|
[2 F3 G Ac|df cA GF|(3DFD C3 D|F6|:a4 a2|g2 g2 gf|fg fd cA|(3GAG F2 (3FAc|
a4 (3FAc|g4 (3FAc|fd cA GF|G6|ag fa gf|(3ded c2 cd|fc cd cA|(3GAG F4-|
[1 F3 G Ac|df-fc cA|(3GAG F3 G|F6:|2 F3 G Ac|df cA GF|(3DFD C3 D|F6||

